X: 1
T: The Wager
M:C|
L:1/8
C: Miss Magdelina Stirling's Collection
Z: source from Highland Music Trust, chords by Gary Whaley
K:A
A[|:"A"EA AA/B/ "E"cBBc  |"A"EA AB/c/ "D"d(ff)e/d/ |"A"e>cd>B "E"fBBc|"A"E>A "E"c/B/A/B/ "A" cAA :|]
c/e/[|:"A"{g}a>ea>c "E"fB Bc/e/|"A"{g}a<ea,c Acae|"D"fd"A"ec "E"fBBc|"A"E>A "E"c/B/A/B/ "A"cAA:|]
